star_01.svg

<svg width="326" height="342" viewBox="0 0 326 342" fill="none" xmlns="http://www.w3.org/2000/svg">
<path d="M163 0L183.184 108.881L263.511 32.6581L215.842 132.608L325.631 118.158L228.316 171L325.631 223.842L215.842 209.392L263.511 309.342L183.184 233.119L163 342L142.816 233.119L62.4887 309.342L110.158 209.392L0.369339 223.842L97.6838 171L0.369339 118.158L110.158 132.608L62.4887 32.6581L142.816 108.881L163 0Z" fill="#CECCCC"/>
</svg>

<svg xmlns="http://www.w3.org/2000/svg" fill="none" viewBox="0 0 326 342"><path fill="#CECCCC" d="M163 0l20.184 108.881 80.327-76.223-47.669 99.95 109.789-14.45L228.316 171l97.315 52.842-109.789-14.45 47.669 99.95-80.327-76.223L163 342l-20.184-108.881-80.327 76.223 47.669-99.95L.369 223.842 97.684 171 .369 118.158l109.789 14.45-47.67-99.95 80.328 76.223L163 0z"/></svg>
